source/img/icon-mail-square.svg

<svg fill="none" height="58" viewBox="0 0 58 58" width="58" xmlns="http://www.w3.org/2000/svg"><path d="m0 0h58v58h-58z" fill="#e6e6e6"/><path d="m29 31c-.3 0-.5-.1-1-.3l-7-3.7v7c0 .5.5 1 1 1h14c.5 0 1-.5 1-1v-7l-7 3.7c-.5.2-.7.3-1 .3zm7-8h-14c-.5 0-1 .5-1 1v.8l8 4.2 8-4.2v-.8c0-.5-.5-1-1-1z" fill="#000"/></svg>

<svg width="58" height="58" viewBox="0 0 58 58" fill="none" xmlns="http://www.w3.org/2000/svg">
<rect width="58" height="58" fill="#E6E6E6"/>
<path d="M29 31C28.7 31 28.5 30.9 28 30.7L21 27V34C21 34.5 21.5 35 22 35H36C36.5 35 37 34.5 37 34V27L30 30.7C29.5 30.9 29.3 31 29 31ZM36 23H22C21.5 23 21 23.5 21 24V24.8L29 29L37 24.8V24C37 23.5 36.5 23 36 23Z" fill="black"/>
</svg>
